!!!!SEGMENT: pl-kk--kk-i-3--007-005_anonim--officium-secundum-alleluia-prophetae-sancti.krn
!!!cenid: 15xx:593
!!!COM: Anonim
!!!COM-rismID: pe30004985
!!!CDT:
!!!CNT:
!!!OPR: Officium Secundum
!!!OTL: Alleluia, Prophetae sancti
!!!OMV: 005
!!!PDT:
!!!AGN:
!!!SMS-siglum: PL-Kk
!!!SMS-shelfmark: Kk.I.3
!!!SMS-shelfwork: 007-005 M
!!!SMS-variant:
!!!SMS-altvar:
!!!NIFC-rismSourceID: 1001145511
!!!NIFC-islandoraID: pl-kk:1170
!!!URL-pdf-islandora: https://repozytorium.nifc.pl/islandora/object/pl-kk%3A1170/datastream/PDF/view
!!!URL-scan: https://polish.musicsources.pl/pl/lokalizacje/galeria/rekopisy/5919 @EN{Scan on Polish Music Sources Website} @PL{Skany w portalu Dziedzictwo Muzyki Polskiej w otwartym dostępie}
!!!ONB-nifc: UWAGA: Discantus (s. 33r-34r, skan 0035-0036), Tenor (s. 25r-v, skan 0197-0198), Bassus (s. 31r-32r, skan 0334-0335). Następna część: Mittit ad Virginem
!!!AIN: 1 bass 1 soprn 1 tenor
!!!key: G
**kern	**text	**kern	**text	**kern	**text
*part3	*part3	*part2	*part2	*part1	*part1
*staff3	*staff3	*staff2	*staff2	*staff1	*staff1
*I"Basso	*	*I"Tenore	*	*I"Canto	*
*I'B.	*	*I'T.	*	*I'C.	*
*Ibass	*	*Itenor	*	*Isoprn	*
*ICvox	*	*ICvox	*	*ICvox	*
*clefF4	*	*clefF3	*	*clefC3	*
*k[]	*	*k[]	*	*k[]	*
*G:	*	*G:	*	*G:	*
*M2/1	*	*M2/1	*	*M2/1	*
*	*	*	*	*lig	*
=1-	=1-	=1-	=1-	=1-	=1-
!	!	!LO:TX:t=P:problem=głos zapisany neumami gotyckimi	!	!	!
*2\right	*	*	*	*2\right	*
1G	Al-	1C	Al-	1c	Al-
1F	-le-	1D	.	1A	.
*	*	*	*	*Xlig	*
=2-	=2-	=2-	=2-	=2-	=2-
2D/	.	1D	-le-	2A/	-le-
1F	.	.	.	1d	.
.	.	1F	.	.	.
2F/	.	.	.	1c\	.
=3-	=3-	=3-	=3-	=3-	=3-
*	*	*lig	*	*	*
1D	.	1F	-lu-	.	.
.	.	.	.	2B/	.
1C	.	1E	.	1c	.
*	*	*Xlig	*	*	*
=4-	=4-	=4-	=4-	=4-	=4-
1D	-lu-	1D	-ia	1f	-lu-
!LO:TX:b:t=[sc-below]	!	!	!	!LO:TX:t=[sc]	!
1AA	-ia	1E	.	1e	-ia
=5||-	=5||-	=5|	=5|	=5||-	=5||-
1D	.	1F	.	2d/	.
.	.	.	.	1f	.
*	*	*lig	*	*	*
1C	.	1G	.	.	.
.	.	.	.	2e\	.
=6-	=6-	=6-	=6-	=6-	=6-
1D	.	1F	.	1f	.
*	*	*Xlig	*	*	*
*custos:C	*	*	*	*	*
*	*	*lig	*	*	*
1GG	.	1G	.	1d	.
!LO:LB:g=original	!	!	!	!	!
=7-	=7-	=7-	=7-	=7-	=7-
*	*	*	*	*custos:c	*
1C	.	1E	.	1c	.
*	*	*Xlig	*	*	*
!	!	!	!	!LO:PB:g=original	!
*	*	*lig	*	*	*
2AA/	.	1F	.	1c	.
2FF/	.	.	.	.	.
=8-	=8-	=8-	=8-	=8-	=8-
1BB	.	1D	.	1d	.
*	*	*Xlig	*	*	*
2AA/	.	1F	.	1c	.
1A\	.	.	.	.	.
=9-	=9-	=9-	=9-	=9-	=9-
.	.	1D	.	1d	.
2F\	.	.	.	.	.
1G	.	1C	.	1e	.
=10-	=10-	=10-	=10-	=10-	=10-
1F	.	1D	.	2f\	.
.	.	.	.	2d/	.
*	*	*custos:E	*	*	*
2F\	.	1F	.	2c/	.
1D\	.	.	.	2d/	.
!	!	!LO:PB:g=original	!	!	!
=11-	=11-	=11-	=11-	=11-	=11-
.	.	1E	.	1e	.
2C/	.	.	.	.	.
0D	.	1D	.	1A	.
=12-	=12-	=12-	=12-	=12-	=12-
.	.	1F	.	2A/	.
.	.	.	.	2B/	.
1C	.	1G	.	1c	.
=13-	=13-	=13-	=13-	=13-	=13-
2FF/	.	1A	.	2c/	.
*	*	*	*	*custos:F	*
1F	.	.	.	1A	.
.	.	1A	.	.	.
!	!	!	!	!LO:LB:g=original	!
2D/	.	.	.	2F/	.
=14-	=14-	=14-	=14-	=14-	=14-
2E/	.	1G	.	2G/	.
*custos:D	*	*	*	*	*
2C/	.	.	.	1c	.
!LO:PB:g=original	!	!	!	!	!
1D	.	1F	.	.	.
.	.	.	.	2B/	.
=15-	=15-	=15-	=15-	=15-	=15-
*	*	*lig	*	*	*
0AA	.	1E	.	0c	.
.	.	1E	.	.	.
*	*	*Xlig	*	*	*
=16-	=16-	=16-	=16-	=16-	=16-
*	*	*lig**Xlig	*	*	*
1E	.	1G	.	2B/	.
.	.	.	.	1e	.
*lig	*	*lig	*	*	*
1F	.	1A	.	.	.
.	.	.	.	2d/	.
=17-	=17-	=17-	=17-	=17-	=17-
1E	.	1G	.	1e	.
*Xlig	*	*	*	*	*
1C	.	1E	.	1e	.
*	*	*Xlig	*	*	*
=18-	=18-	=18-	=18-	=18-	=18-
*lig	*	*lig	*	*	*
1D	.	1F	.	1d	.
1GG	.	1D	.	1B	.
*Xlig	*	*	*	*	*
=19-	=19-	=19-	=19-	=19-	=19-
1G	.	1C	.	1e	.
*	*	*Xlig	*	*	*
2F\	.	1D	.	2d/	.
1D\	.	.	.	1f\	.
=20-	=20-	=20-	=20-	=20-	=20-
.	.	1E	.	.	.
2C/	.	.	.	2e\	.
1D	.	1F	.	1d	.
=21-	=21-	=21-	=21-	=21-	=21-
!LO:N:vis=1	!	!	!	!LO:N:vis=1	!
0AA;	.	0E	.	0c;	.
!	!	!	!	!LO:LB:g=original	!
=22	=22	=22||	=22||	=22	=22
1F	Pro-	1F	Pro-	1c	Pro-
1D	-phe-	1F	-phe-	2d/	-phe-
.	.	.	.	1f\	.
=23-	=23-	=23-	=23-	=23-	=23-
*custos:FF	*	*	*	*	*
1F	.	1D	.	.	.
.	.	.	.	2f\	.
!LO:LB:g=original	!	!	!	!	!
*	*	*lig	*	*	*
1FF	-te	1F	.	2d/	.
.	.	.	.	1c\	.
=24-	=24-	=24-	=24-	=24-	=24-
1GG	.	1D	.	.	.
.	.	.	.	2B/	.
*	*	*Xlig	*	*	*
*	*	*custos:D	*	*	*
2AA/	.	1C	-te	2c/	.
2C/	ſan-	.	.	2e/	-te
!	!	!LO:LB:g=original	!	!	!
=25-	=25-	=25-	=25-	=25-	=25-
1BB	-cti	1D	ſ(an)-	1d	Sa(n)-
1AA	.	1E,	-cti	1c,	-cti
=26-	=26-	=26-	=26-	=26-	=26-
1C	pre-	1E	pre-	1c	pre-
1C	-di-	1C	-di-	1c	-di-
=27-	=27-	=27-	=27-	=27-	=27-
1AA	-ca-	1E	-ca-	1c	-ca-
1E	-ve-	1G	-ue-	1B	-ve-
=28-	=28-	=28-	=28-	=28-	=28-
*	*	*lig	*	*	*
1AA	.	1A	.	1c	.
1D	.	1F	.	2d/	.
*	*	*	*	*custos:e	*
.	.	.	.	2f\	.
*	*	*Xlig	*	*	*
!	!	!	!	!LO:LB:g=original	!
=29-	=29-	=29-	=29-	=29-	=29-
*	*	*lig	*	*	*
1GG	.	1G	.	2e\	.
.	.	.	.	1d	.
1AA	-r(un)t	1E	.	.	.
.	.	.	.	2c/	.
*	*	*Xlig	*	*	*
=30-	=30-	=30-	=30-	=30-	=30-
1A	nas-	1D	.	1d	.
1A	.	1F	.	1c	-r(un)t
=31-	=31-	=31-	=31-	=31-	=31-
*custos:A	*	*	*	*	*
2F/	-ci	1D	-runt	2d/	na-
!LO:LB:g=original	!	!	!	!	!
1A	ſal-	.	.	1f	.
.	.	1D	naſ-	.	.
2G\	.	.	.	2e\	-sci
=32-	=32-	=32-	=32-	=32-	=32-
2F\	.	1D	-ci	1d	.
2D/	.	.	.	.	.
1F	.	1D	ſal-	1A	ſal-
=33-	=33-	=33-	=33-	=33-	=33-
1D	-va-	1F	-ua-	2A/	.
.	.	.	.	2B/	.
1C	-to-	1E	.	1c	-va-
=34-	=34-	=34-	=34-	=34-	=34-
2D/	.	1F	.	2A/	.
2F\	.	.	.	2d/	.
!	!	!LO:SIC:v:t=F	!	!	!
2E/	.	1G	.	2B/	.
2C/	.	.	.	2c/	.
!	!	!LO:LB:g=original	!	!	!
=35-	=35-	=35-	=35-	=35-	=35-
*	*	*	*	*custos:c	*
*lig	*	*lig	*	*	*
1D	.	1F	-to-	1A	.
!	!	!	!	!LO:LB:g=original	!
1C	.	1E	-r(em)	1c	to-
*Xlig	*	*Xlig	*	*	*
=36-	=36-	=36-	=36-	=36-	=36-
1C	-re(m)	1E,	.	1c	-re(m)
1AA	de	1E	de	1e	de
=37-	=37-	=37-	=37-	=37-	=37-
1E	vir-	1G	vir-	1e	vir-
1D	-gi-	1A	-gi-	1f	-gi-
=38-	=38-	=38-	=38-	=38-	=38-
2AA/	.	1A	-ne	2e\	.
*custos:C	*	*	*	*	*
2D/	.	.	.	2f\	.
!LO:LB:g=original	!	!	!	!	!
2C/	.	1c	.	2e\	.
1F\	.	.	.	1c\	-ne
=39-	=39-	=39-	=39-	=39-	=39-
.	.	1A	.	.	.
2D/	.	.	.	2d/	.
2E/	.	1G	.	2B/	.
2C/	.	.	.	2c/	.
=40-	=40-	=40-	=40-	=40-	=40-
1D	-ne	1F	.	1A	.
1BB	.	1G	.	1B	.
=41-	=41-	=41-	=41-	=41-	=41-
1AA	.	1A	.	1c	.
1C	.	1G	.	1e	.
=42-	=42-	=42-	=42-	=42-	=42-
*	*	*	*	*custos:e	*
1D	.	1F	.	1d	.
!	!	!	!	!LO:LB:g=original	!
2C/	.	1E	.	2e/	.
2AA/	.	.	.	2c/	.
=43-	=43-	=43-	=43-	=43-	=43-
*lig	*	*	*	*	*
1BB	.	1D	.	1d	.
*	*	*lig	*	*	*
1AA	.	1E	.	0c	.
*Xlig	*	*	*	*	*
=44-	=44-	=44-	=44-	=44-	=44-
1AA	.	1E	.	.	.
*	*	*Xlig	*	*	*
1E	.	1G	.	1B	.
=45-	=45-	=45-	=45-	=45-	=45-
1D	.	1A	.	1d	.
*	*	*lig	*	*	*
2C/	.	1c	.	1e	.
1AA/	.	.	.	.	.
=46-	=46-	=46-	=46-	=46-	=46-
.	.	1A	.	1c	.
*custos:E	*	*	*	*	*
2AA/	.	.	.	.	.
!LO:LB:g=original	!	!	!	!	!
2E/	.	1G	.	2B/	.
2C/	.	.	.	2c/	.
*	*	*Xlig	*	*	*
=47-	=47-	=47-	=47-	=47-	=47-
1D	.	1F	.	2A/	.
.	.	.	.	1d	.
2GG/	.	1G	.	.	.
1G\	.	.	.	2c/	.
=48-	=48-	=48-	=48-	=48-	=48-
!	!	!LO:SIC:v:t=G	!	!	!
.	.	1A	.	1d	.
2F\	.	.	.	.	.
!	!	!LO:LB:g=original	!	!	!
2G\	.	1G	.	1B	.
2GG/	.	.	.	.	.
=49-	=49-	=49-	=49-	=49-	=49-
2AA/	.	1F	.	2c/	.
2BB/	.	.	.	2B/	.
*	*	*	*	*custos:a	*
1C	.	1E	.	2G/	.
!	!	!	!	!LO:LB:g=original	!
.	.	.	.	1A/	.
=50-	=50-	=50-	=50-	=50-	=50-
1BB	.	1D	.	.	.
.	.	.	.	2G/	.
1AA	.	1E	.	1A	.
=51-	=51-	=51-	=51-	=51-	=51-
*	*	*lig	*	*	*
1D	.	1F	.	2A/	.
.	.	.	.	1d	.
1AA	.	1E	.	.	.
.	.	.	.	2c/	.
*	*	*Xlig	*	*	*
=52-	=52-	=52-	=52-	=52-	=52-
*	*	*lig	*	*	*
1A	.	1F	.	0d	.
*custos:F	*	*	*	*	*
2A\	.	1D	.	.	.
!LO:LB:g=original	!	!	!	!	!
1F\	.	.	.	.	.
*	*	*Xlig	*	*	*
=53-	=53-	=53-	=53-	=53-	=53-
.	.	1F	.	2c/	.
2D/	.	.	.	2f\	.
1E	.	1G	.	1e	.
=54-	=54-	=54-	=54-	=54-	=54-
0D	.	1A	.	0f	.
.	.	1A	.	.	.
=55-	=55-	=55-	=55-	=55-	=55-
2E/	.	1G	.	1e	.
2C/	.	.	.	.	.
1D	.	1F	.	1d	.
=56-	=56-	=56-	=56-	=56-	=56-
1AA	.	1E	.	1c	.
1C	ma-	1E	.	1c	.
=57-	=57-	=57-	=57-	=57-	=57-
*	*	*lig	*	*	*
1D	.	1F	.	1A	.
*	*	*	*	*custos:b	*
1GG	-tre	1D	.	1B	ma-
*	*	*Xlig	*	*	*
!	!	!	!	!LO:LB:g=original	!
=58-	=58-	=58-	=58-	=58-	=58-
*lig	*	*	*	*	*
1GG	ſan-	1D	.	1B	-tre
1D	.	1F	.	1A	ſan-
*Xlig	*	*	*	*	*
=59-	=59-	=59-	=59-	=59-	=59-
*lig	*	*lig	*	*	*
1D	-cta	1F	.	2A/	.
.	.	.	.	2B/	.
1C	.	1E	.	1c	.
*Xlig	*	*Xlig	*	*	*
=60-	=60-	=60-	=60-	=60-	=60-
*lig	*	*	*	*	*
1G	ma-	1C	.	1e	.
1F	.	1D	.	1d	-cta
*Xlig	*	*	*	*	*
=61-	=61-	=61-	=61-	=61-	=61-
2F/	-ri-	1D	.	2d/	.
*custos:AA	*	*	*	*	*
1D\	.	.	.	1f	Ma-
.	.	1F	.	.	.
!LO:LB:g=original	!	!	!	!	!
2AA/	.	.	.	2c/	.
=62-	=62-	=62-	=62-	=62-	=62-
1D	.	1F	.	1d	.
1AA	.	1E	.	2e/	.
.	.	.	.	2c/	-ri-
=63-	=63-	=63-	=63-	=63-	=63-
1BB	.	1D	.	1d	.
*	*	*	*	*custos:c	*
1AA;	-a	1E	.	1c;	-a
=	=	=	=	=	=
*-	*-	*-	*-	*-	*-
!!!system-decoration: [(s1,s2,s3)]
!!!ENC: Berenika Jozajtis
!!!END: 2022-02-16
!!!ENC: Urszula Świątek
!!!END: 2022-02-23
